X: 10542
T: JOHN ROY STEWART.     a Strathspey.
R: strathspey
B: "Edinburgh Repository of Music" v.1 p.54 #2
F: http://digital.nls.uk/special-collections-of-printed-music/pageturner.cfm?id=87776133
Z: 2015 John Chambers <jc:trillian.mit.edu>
M: C|
L: 1/8
K: F	% and Dm
f |\
{d}c>BAG F<GA2 | c>FA>F c>FAf |\
{d}c>(B{B}A)>G F>GAF | Ddd>c d2d :|\
f |\
Tc>d Tf>g afga | f>c (d/c/).B/.A/ fccf |
Tc>dTf>g afga | caTg>f ~d3f |\
~c>d~f>g {fg}afga | fc (d/c/B/A/) fccf/g/ |\
a>fg>d Tf>cd<f | AdTd>c d2d |]
